; generated by PrusaSlicer 2.7.1 on 2024-01-19 at 23:05:23 UTC

; 

; external perimeters extrusion width = 0.45mm
; perimeters extrusion width = 0.45mm
; infill extrusion width = 0.45mm
; solid infill extrusion width = 0.45mm
; top infill extrusion width = 0.40mm
; support material extrusion width = 0.40mm
; first layer extrusion width = 0.43mm

M201 X9000 Y9000 Z500 E10000 ; sets maximum accelerations, mm/sec^2
M203 X500 Y500 Z12 E120 ; sets maximum feedrates, mm / sec
M204 S1500 T1500 ; sets acceleration (S) and retract acceleration (R), mm/sec^2
M205 X10.00 Y10.00 Z0.20 E2.50 ; sets the jerk limits, mm/sec
M205 S0 T0 ; sets the minimum extruding and travel feed rate, mm/sec

; printing object Sv01_fan_1.STL id:0 copy 0
; stop printing object Sv01_fan_1.STL id:0 copy 0

;TYPE:Custom
; *** start of custom G-code ***
M140 S62 ; set bed temp
M104 S215 ; set extruder temp
G28 Y0 X0 Z0  ; home
M190 S62 ; wait for bed temp
M109 S215 ; wait for extruder temp
M300 S1000 P500 ; chirp
; Prusa g-code
; G1 Y-3.0 X0.0 F4000.0 ; go outside print area
; G1 Z0.0 F300.0; 
; G1 X90 E15.0  F1000.0 ; intro line
; G92 E0.0
G1 Z2.0 F3000 ; Move Z Axis up little to prevent scratching of Heat Bed
G1 X0.1 Y20 Z0.3 F5000.0 ; Move to start position
G1 X0.1 Y200.0 Z0.3 F1500.0 E15 ; Draw the first line
G1 X0.5 Y200.0 Z0.3 F5000.0 ; Move to side a little
G1 X0.5 Y20 Z0.3 F1500.0 E30 ; Draw the second line
G92 E0 ; Reset Extruder
G1 Z2.0 F3000 ; Move Z Axis up little to prevent scratching of Heat Bed
G1 X5 Y20 Z0.3 F5000.0 ; Move over to prevent blob squish
; *** end of custom G-code ***
G21 ; set units to millimeters
G90 ; use absolute coordinates
M82 ; use absolute distances for extrusion
G92 E0 ; reset extrusion distance
; Filament gcode
M107 ; disable fan
;LAYER_CHANGE
;Z:0.35
;HEIGHT:0.35
G1 Z.35 F7800 ; move to next layer (0)
; printing object Sv01_fan_1.STL id:0 copy 0
G1 E-2 F3000 ; retract
G92 E0 ; reset extrusion distance
G1 X156.826 Y106.293 F7800 ; move to print after unknown position
G1 E2 F3000 ;  ; unretract
;TYPE:Support material interface
;WIDTH:0.4
G1 F1200
G1 X156.826 Y103.3 E2.1415 ; support material interface
G1 X156.486 Y103.3 E2.15757 ; support material interface
G1 X156.486 Y106.14 E2.29183 ; support material interface
G1 X156.146 Y106.14 E2.3079 ; support material interface
G1 X156.146 Y103.3 E2.44216 ; support material interface
G1 X155.806 Y103.3 E2.45823 ; support material interface
G1 X155.806 Y106.14 E2.59249 ; support material interface
G1 X155.466 Y106.14 E2.60856 ; support material interface
G1 X155.466 Y103.3 E2.74282 ; support material interface
G1 X155.126 Y103.3 E2.75889 ; support material interface
G1 X155.126 Y106.14 E2.89315 ; support material interface
G1 X154.786 Y106.14 E2.90922 ; support material interface
G1 X154.786 Y103.3 E3.04348 ; support material interface
G1 X154.446 Y103.3 E3.05955 ; support material interface
G1 X154.446 Y106.14 E3.19381 ; support material interface
G1 X154.106 Y106.14 E3.20988 ; support material interface
G1 X154.106 Y103.3 E3.34414 ; support material interface
G1 X153.766 Y103.3 E3.36021 ; support material interface
G1 X153.766 Y106.14 E3.49447 ; support material interface
G1 X153.426 Y106.14 E3.51054 ; support material interface
G1 X153.426 Y103.3 E3.6448 ; support material interface
G1 X153.087 Y103.3 E3.66083 ; support material interface
G1 X153.087 Y106.14 E3.79509 ; support material interface
G1 X152.747 Y106.14 E3.81116 ; support material interface
G1 X152.747 Y103.3 E3.94542 ; support material interface
G1 X152.407 Y103.3 E3.96149 ; support material interface
G1 X152.407 Y106.14 E4.09575 ; support material interface
G1 X152.067 Y106.14 E4.11182 ; support material interface
G1 X152.067 Y103.3 E4.24608 ; support material interface
G1 X151.727 Y103.3 E4.26215 ; support material interface
G1 X151.727 Y106.14 E4.39641 ; support material interface
G1 X151.387 Y106.14 E4.41248 ; support material interface
G1 X151.387 Y103.3 E4.54674 ; support material interface
G1 X151.047 Y103.3 E4.56281 ; support material interface
G1 X151.047 Y106.14 E4.69707 ; support material interface
G1 X150.707 Y106.14 E4.71314 ; support material interface
G1 X150.707 Y103.3 E4.8474 ; support material interface
G1 X150.367 Y103.3 E4.86347 ; support material interface
G1 X150.367 Y106.14 E4.99773 ; support material interface
G1 X150.027 Y106.14 E5.0138 ; support material interface
G1 X150.027 Y103.3 E5.14806 ; support material interface
G1 X149.687 Y103.3 E5.16413 ; support material interface
G1 X149.687 Y106.14 E5.29839 ; support material interface
G1 X149.348 Y106.14 E5.31442 ; support material interface
G1 X149.348 Y103.3 E5.44868 ; support material interface
G1 X149.008 Y103.3 E5.46475 ; support material interface
G1 X149.008 Y106.14 E5.59901 ; support material interface
G1 X148.668 Y106.14 E5.61508 ; support material interface
G1 X148.668 Y103.3 E5.74934 ; support material interface
G1 X148.328 Y103.3 E5.76541 ; support material interface
G1 X148.328 Y106.14 E5.89967 ; support material interface
G1 X147.988 Y106.14 E5.91574 ; support material interface
G1 X147.988 Y103.3 E6.05 ; support material interface
G1 X147.648 Y103.3 E6.06607 ; support material interface
G1 X147.648 Y106.14 E6.20033 ; support material interface
G1 X147.308 Y106.14 E6.2164 ; support material interface
G1 X147.308 Y103.3 E6.35066 ; support material interface
G1 X146.968 Y103.3 E6.36673 ; support material interface
G1 X146.968 Y106.14 E6.50099 ; support material interface
G1 X146.628 Y106.14 E6.51706 ; support material interface
G1 X146.628 Y103.3 E6.65132 ; support material interface
G1 X146.288 Y103.3 E6.66739 ; support material interface
G1 X146.288 Y106.14 E6.80165 ; support material interface
G1 X145.948 Y106.14 E6.81772 ; support material interface
G1 X145.948 Y103.3 E6.95198 ; support material interface
G1 X145.608 Y103.3 E6.96805 ; support material interface
G1 X145.608 Y106.14 E7.10231 ; support material interface
G1 X145.269 Y106.14 E7.11834 ; support material interface
G1 X145.269 Y103.3 E7.2526 ; support material interface
G1 X144.929 Y103.3 E7.26867 ; support material interface
G1 X144.929 Y106.14 E7.40293 ; support material interface
G1 X144.589 Y106.14 E7.419 ; support material interface
G1 X144.589 Y103.3 E7.55326 ; support material interface
G1 X144.249 Y103.3 E7.56933 ; support material interface
G1 X144.249 Y106.14 E7.70359 ; support material interface
G1 X143.909 Y106.14 E7.71966 ; support material interface
G1 X143.909 Y103.3 E7.85392 ; support material interface
G1 X143.569 Y103.3 E7.86999 ; support material interface
G1 X143.569 Y106.14 E8.00425 ; support material interface
G1 X143.229 Y106.14 E8.02032 ; support material interface
G1 X143.229 Y103.3 E8.15458 ; support material interface
G1 X142.889 Y103.3 E8.17065 ; support material interface
G1 X142.889 Y106.14 E8.30491 ; support material interface
G1 X142.549 Y106.14 E8.32098 ; support material interface
G1 X142.549 Y103.3 E8.45524 ; support material interface
G1 X142.209 Y103.3 E8.47131 ; support material interface
G1 X142.209 Y106.14 E8.60557 ; support material interface
G1 X141.869 Y106.14 E8.62164 ; support material interface
G1 X141.869 Y103.3 E8.7559 ; support material interface
G1 X141.53 Y103.3 E8.77193 ; support material interface
G1 X141.53 Y106.14 E8.90619 ; support material interface
G1 X141.19 Y106.14 E8.92226 ; support material interface
G1 X141.19 Y103.3 E9.05652 ; support material interface
G1 X140.85 Y103.3 E9.07259 ; support material interface
G1 X140.85 Y106.14 E9.20685 ; support material interface
G1 X140.51 Y106.14 E9.22292 ; support material interface
G1 X140.51 Y103.3 E9.35718 ; support material interface
G1 X140.17 Y103.3 E9.37325 ; support material interface
G1 X140.17 Y106.14 E9.50751 ; support material interface
G1 X139.83 Y106.14 E9.52358 ; support material interface
G1 X139.83 Y103.3 E9.65784 ; support material interface
G1 X139.49 Y103.3 E9.67391 ; support material interface
G1 X139.49 Y106.14 E9.80817 ; support material interface
G1 X139.15 Y106.14 E9.82424 ; support material interface
G1 X139.15 Y103.3 E9.9585 ; support material interface
G1 X138.81 Y103.3 E9.97457 ; support material interface
G1 X138.81 Y106.14 E10.10883 ; support material interface
G1 X138.47 Y106.14 E10.1249 ; support material interface
G1 X138.47 Y103.3 E10.25916 ; support material interface
G1 X138.13 Y103.3 E10.27523 ; support material interface
G1 X138.13 Y106.14 E10.40949 ; support material interface
G1 X137.791 Y106.14 E10.42552 ; support material interface
G1 X137.791 Y103.3 E10.55978 ; support material interface
G1 X137.451 Y103.3 E10.57585 ; support material interface
G1 X137.451 Y106.293 E10.71735 ; support material interface
G1 X136.775 Y106.525 F7800 ; move to first support material point
;TYPE:Support material
;WIDTH:0.43
G1 F1200
G1 X157.425 Y106.525 E11.78374 ; support material
G1 X157.425 Y103.525 E11.93866 ; support material
G1 X159.994 Y103.525 E12.07133 ; support material
G1 X159.994 Y114.775 E12.65229 ; support material
G1 X156.396 Y114.775 E12.83809 ; support material
G1 X156.396 Y112.202 E12.97096 ; support material
G1 X156.139 Y111.945 E12.98973 ; support material
G1 X135.774 Y111.945 E14.0414 ; support material
G1 X135.516 Y112.202 E14.06021 ; support material
G1 X135.516 Y114.087 E14.15755 ; support material
G1 X134.205 Y114.087 E14.22525 ; support material
G1 X134.205 Y103.525 E14.77068 ; support material
G1 X136.775 Y103.525 E14.9034 ; support material
G1 X136.775 Y106.472 E15.05559 ; support material
G1 E13.05559 F3000 ; retract
G92 E0 ; reset extrusion distance
G1 X136.775 Y106.472 F7800 ; move to first support material point
G1 X159.322 Y114.615 ; move to first support material point
G1 E2 F3000 ;  ; unretract
G1 F1200
G1 X159.322 Y103.845 E2.55617 ; support material
G1 X158.927 Y103.845 E2.57657 ; support material
G1 X158.927 Y114.456 E3.12453 ; support material
G1 X158.533 Y114.456 E3.14488 ; support material
G1 X158.533 Y103.845 E3.69284 ; support material
G1 X158.139 Y103.845 E3.71319 ; support material
G1 X158.139 Y114.456 E4.26115 ; support material
G1 X157.744 Y114.456 E4.28155 ; support material
G1 X157.744 Y103.845 E4.82951 ; support material
G1 X157.744 Y106.845 E4.98443 ; support material
G1 X157.35 Y106.845 E5.00478 ; support material
G1 X157.35 Y114.456 E5.39782 ; support material
G1 X156.956 Y114.456 E5.41817 ; support material
G1 X156.956 Y106.845 E5.81121 ; support material
G1 X156.561 Y106.845 E5.83161 ; support material
G1 X156.561 Y111.916 E6.09348 ; support material
G1 X156.271 Y111.625 E6.1147 ; support material
G1 X156.167 Y111.625 E6.12007 ; support material
G1 X156.167 Y106.845 E6.36691 ; support material
G1 X155.773 Y106.845 E6.38726 ; support material
G1 X155.773 Y111.625 E6.6341 ; support material
G1 X155.379 Y111.625 E6.65445 ; support material
G1 X155.379 Y106.845 E6.90129 ; support material
G1 X154.984 Y106.845 E6.92169 ; support material
G1 X154.984 Y111.625 E7.16853 ; support material
G1 X154.59 Y111.625 E7.18888 ; support material
G1 X154.59 Y106.845 E7.43572 ; support material
G1 X154.196 Y106.845 E7.45607 ; support material
G1 X154.196 Y111.625 E7.70291 ; support material
G1 X153.801 Y111.625 E7.72331 ; support material
G1 X153.801 Y106.845 E7.97015 ; support material
G1 X153.407 Y106.845 E7.9905 ; support material
G1 X153.407 Y111.625 E8.23734 ; support material
G1 X153.013 Y111.625 E8.25769 ; support material
G1 X153.013 Y106.845 E8.50453 ; support material
G1 X152.618 Y106.845 E8.52493 ; support material
G1 X152.618 Y111.625 E8.77177 ; support material
G1 X152.224 Y111.625 E8.79212 ; support material
G1 X152.224 Y106.845 E9.03896 ; support material
G1 X151.83 Y106.845 E9.05931 ; support material
G1 X151.83 Y111.625 E9.30615 ; support material
G1 X151.435 Y111.625 E9.32655 ; support material
G1 X151.435 Y106.845 E9.57339 ; support material
G1 X151.041 Y106.845 E9.59374 ; support material
G1 X151.041 Y111.625 E9.84058 ; support material
G1 X150.647 Y111.625 E9.86093 ; support material
G1 X150.647 Y106.845 E10.10777 ; support material
G1 X150.252 Y106.845 E10.12817 ; support material
G1 X150.252 Y111.625 E10.37501 ; support material
G1 X149.858 Y111.625 E10.39536 ; support material
G1 X149.858 Y106.845 E10.6422 ; support material
G1 X149.464 Y106.845 E10.66255 ; support material
G1 X149.464 Y111.625 E10.90939 ; support material
G1 X149.069 Y111.625 E10.92979 ; support material
G1 X149.069 Y106.845 E11.17663 ; support material
G1 X148.675 Y106.845 E11.19698 ; support material
G1 X148.675 Y111.625 E11.44382 ; support material
G1 X148.281 Y111.625 E11.46417 ; support material
G1 X148.281 Y106.845 E11.71101 ; support material
G1 X147.886 Y106.845 E11.73141 ; support material
G1 X147.886 Y111.625 E11.97825 ; support material
G1 X147.492 Y111.625 E11.9986 ; support material
G1 X147.492 Y106.845 E12.24544 ; support material
G1 X147.098 Y106.845 E12.26579 ; support material
G1 X147.098 Y111.625 E12.51263 ; support material
G1 X146.703 Y111.625 E12.53303 ; support material
G1 X146.703 Y106.845 E12.77987 ; support material
G1 X146.309 Y106.845 E12.80022 ; support material
G1 X146.309 Y111.625 E13.04706 ; support material
G1 X145.915 Y111.625 E13.06741 ; support material
G1 X145.915 Y106.845 E13.31425 ; support material
G1 X145.52 Y106.845 E13.33465 ; support material
G1 X145.52 Y111.625 E13.58149 ; support material
G1 X145.126 Y111.625 E13.60184 ; support material
G1 X145.126 Y106.845 E13.84868 ; support material
G1 X144.732 Y106.845 E13.86903 ; support material
G1 X144.732 Y111.625 E14.11587 ; support material
G1 X144.338 Y111.625 E14.13622 ; support material
G1 X144.338 Y106.845 E14.38306 ; support material
G1 X143.943 Y106.845 E14.40346 ; support material
G1 X143.943 Y111.625 E14.6503 ; support material
G1 X143.549 Y111.625 E14.67065 ; support material
G1 X143.549 Y106.845 E14.91749 ; support material
G1 X143.155 Y106.845 E14.93784 ; support material
G1 X143.155 Y111.625 E15.18468 ; support material
G1 X142.76 Y111.625 E15.20508 ; support material
G1 X142.76 Y106.845 E15.45192 ; support material
G1 X142.366 Y106.845 E15.47227 ; support material
G1 X142.366 Y111.625 E15.71911 ; support material
G1 X141.972 Y111.625 E15.73946 ; support material
G1 X141.972 Y106.845 E15.9863 ; support material
G1 X141.577 Y106.845 E16.0067 ; support material
G1 X141.577 Y111.625 E16.25354 ; support material
G1 X141.183 Y111.625 E16.27389 ; support material
G1 X141.183 Y106.845 E16.52073 ; support material
G1 X140.789 Y106.845 E16.54108 ; support material
G1 X140.789 Y111.625 E16.78792 ; support material
G1 X140.394 Y111.625 E16.80832 ; support material
G1 X140.394 Y106.845 E17.05516 ; support material
G1 X140 Y106.845 E17.07551 ; support material
G1 X140 Y111.625 E17.32235 ; support material
G1 X139.606 Y111.625 E17.3427 ; support material
G1 X139.606 Y106.845 E17.58954 ; support material
G1 X139.211 Y106.845 E17.60994 ; support material
G1 X139.211 Y111.625 E17.85678 ; support material
G1 X138.817 Y111.625 E17.87713 ; support material
G1 X138.817 Y106.845 E18.12397 ; support material
G1 X138.423 Y106.845 E18.14432 ; support material
G1 X138.423 Y111.625 E18.39116 ; support material
G1 X138.028 Y111.625 E18.41156 ; support material
G1 X138.028 Y106.845 E18.6584 ; support material
G1 X137.634 Y106.845 E18.67875 ; support material
G1 X137.634 Y111.625 E18.92559 ; support material
G1 X137.24 Y111.625 E18.94594 ; support material
G1 X137.24 Y106.845 E19.19278 ; support material
G1 X136.845 Y106.845 E19.21318 ; support material
G1 X136.845 Y111.625 E19.46002 ; support material
G1 X136.451 Y111.625 E19.48037 ; support material
G1 X136.451 Y103.845 E19.88214 ; support material
G1 X136.057 Y103.845 E19.90249 ; support material
G1 X136.057 Y111.625 E20.30426 ; support material
G1 X135.662 Y111.625 E20.32466 ; support material
G1 X135.662 Y103.845 E20.72643 ; support material
G1 X135.268 Y103.845 E20.74678 ; support material
G1 X135.268 Y111.999 E21.16786 ; support material
G1 X135.197 Y112.07 E21.17305 ; support material
G1 X135.197 Y113.768 E21.26074 ; support material
