; generated by PrusaSlicer 2.6.1+MacOS-arm64 on 2024-01-18 at 01:09:16 UTC

; 

; external perimeters extrusion width = 0.45mm
; perimeters extrusion width = 0.45mm
; infill extrusion width = 0.45mm
; solid infill extrusion width = 0.45mm
; top infill extrusion width = 0.40mm
; support material extrusion width = 0.40mm
; first layer extrusion width = 0.43mm

M201 X9000 Y9000 Z500 E10000 ; sets maximum accelerations, mm/sec^2
M203 X500 Y500 Z12 E120 ; sets maximum feedrates, mm / sec
M204 S1500 T1500 ; sets acceleration (S) and retract acceleration (R), mm/sec^2
M205 X10.00 Y10.00 Z0.20 E2.50 ; sets the jerk limits, mm/sec
M205 S0 T0 ; sets the minimum extruding and travel feed rate, mm/sec
;TYPE:Custom
; *** start of custom G-code ***
M140 S62 ; set bed temp
M104 S215 ; set extruder temp
G28 Y0 X0 Z0  ; home
M190 S62 ; wait for bed temp
M109 S215 ; wait for extruder temp
M300 S1000 P500 ; chirp
; Prusa g-code
; G1 Y-3.0 X0.0 F4000.0 ; go outside print area
; G1 Z0.0 F300.0; 
; G1 X90 E15.0  F1000.0 ; intro line
; G92 E0.0
G1 Z2.0 F3000 ; Move Z Axis up little to prevent scratching of Heat Bed
G1 X0.1 Y20 Z0.3 F5000.0 ; Move to start position
G1 X0.1 Y200.0 Z0.3 F1500.0 E15 ; Draw the first line
G1 X0.5 Y200.0 Z0.3 F5000.0 ; Move to side a little
G1 X0.5 Y20 Z0.3 F1500.0 E30 ; Draw the second line
G92 E0 ; Reset Extruder
G1 Z2.0 F3000 ; Move Z Axis up little to prevent scratching of Heat Bed
G1 X5 Y20 Z0.3 F5000.0 ; Move over to prevent blob squish
; *** end of custom G-code ***
G21 ; set units to millimeters
G90 ; use absolute coordinates
M82 ; use absolute distances for extrusion
G92 E0 ; reset extrusion distance
; Filament gcode
M107 ; disable fan
;LAYER_CHANGE
;Z:0.35
;HEIGHT:0.35
G1 Z.35 F7800 ; move to next layer (0)
@Object Sv01_fan_1 (1).STL id:0 copy 0
G1 E-2 F3000 ; retract
G92 E0 ; reset extrusion distance
G1 X123.174 Y105.987 F7800 ; move to first support material interface point
G1 E2 F3000 ;  ; unretract
;TYPE:Support material interface
;WIDTH:0.4
G1 F1200
G1 X123.174 Y111.82 E2.27576 ; support material interface
G1 X123.514 Y111.82 E2.29183 ; support material interface
G1 X123.514 Y106.14 E2.56036 ; support material interface
G1 X123.854 Y106.14 E2.57643 ; support material interface
G1 X123.854 Y111.82 E2.84496 ; support material interface
G1 X124.194 Y111.82 E2.86103 ; support material interface
G1 X124.194 Y106.14 E3.12956 ; support material interface
G1 X124.534 Y106.14 E3.14563 ; support material interface
G1 X124.534 Y111.82 E3.41416 ; support material interface
G1 X124.874 Y111.82 E3.43023 ; support material interface
G1 X124.874 Y106.14 E3.69876 ; support material interface
G1 X125.214 Y106.14 E3.71483 ; support material interface
G1 X125.214 Y111.82 E3.98336 ; support material interface
G1 X125.554 Y111.82 E3.99943 ; support material interface
G1 X125.554 Y106.14 E4.26796 ; support material interface
G1 X125.894 Y106.14 E4.28403 ; support material interface
G1 X125.894 Y111.82 E4.55256 ; support material interface
G1 X126.234 Y111.82 E4.56863 ; support material interface
G1 X126.234 Y106.14 E4.83716 ; support material interface
G1 X126.573 Y106.14 E4.85319 ; support material interface
G1 X126.573 Y111.82 E5.12172 ; support material interface
G1 X126.913 Y111.82 E5.13779 ; support material interface
G1 X126.913 Y106.14 E5.40632 ; support material interface
G1 X127.253 Y106.14 E5.42239 ; support material interface
G1 X127.253 Y111.82 E5.69092 ; support material interface
G1 X127.593 Y111.82 E5.70699 ; support material interface
G1 X127.593 Y106.14 E5.97552 ; support material interface
G1 X127.933 Y106.14 E5.99159 ; support material interface
G1 X127.933 Y111.82 E6.26012 ; support material interface
G1 X128.273 Y111.82 E6.27619 ; support material interface
G1 X128.273 Y106.14 E6.54472 ; support material interface
G1 X128.613 Y106.14 E6.56079 ; support material interface
G1 X128.613 Y111.82 E6.82932 ; support material interface
G1 X128.953 Y111.82 E6.84539 ; support material interface
G1 X128.953 Y106.14 E7.11392 ; support material interface
G1 X129.293 Y106.14 E7.12999 ; support material interface
G1 X129.293 Y111.82 E7.39852 ; support material interface
G1 X129.633 Y111.82 E7.41459 ; support material interface
G1 X129.633 Y106.14 E7.68312 ; support material interface
G1 X129.973 Y106.14 E7.69919 ; support material interface
G1 X129.973 Y111.82 E7.96772 ; support material interface
G1 X130.312 Y111.82 E7.98375 ; support material interface
G1 X130.312 Y106.14 E8.25228 ; support material interface
G1 X130.652 Y106.14 E8.26835 ; support material interface
G1 X130.652 Y111.82 E8.53688 ; support material interface
G1 X130.992 Y111.82 E8.55295 ; support material interface
G1 X130.992 Y106.14 E8.82148 ; support material interface
G1 X131.332 Y106.14 E8.83755 ; support material interface
G1 X131.332 Y111.82 E9.10608 ; support material interface
G1 X131.48 Y111.82 E9.11308 ; support material interface
G1 X131.48 Y108.98 E9.24734 ; support material interface
G1 X131.672 Y108.98 E9.25642 ; support material interface
G1 X131.672 Y106.14 E9.39068 ; support material interface
G1 X132.012 Y106.14 E9.40675 ; support material interface
G1 X132.012 Y108.98 E9.54101 ; support material interface
G1 X132.352 Y108.98 E9.55708 ; support material interface
G1 X132.352 Y106.14 E9.69134 ; support material interface
G1 X132.692 Y106.14 E9.70741 ; support material interface
G1 X132.692 Y108.98 E9.84167 ; support material interface
G1 X133.032 Y108.98 E9.85774 ; support material interface
G1 X133.032 Y106.14 E9.992 ; support material interface
G1 X133.372 Y106.14 E10.00807 ; support material interface
G1 X133.372 Y108.98 E10.14233 ; support material interface
G1 X133.712 Y108.98 E10.1584 ; support material interface
G1 X133.712 Y106.14 E10.29266 ; support material interface
G1 X134.052 Y106.14 E10.30873 ; support material interface
G1 X134.052 Y109.133 E10.45023 ; support material interface
G1 E8.45023 F3000 ; retract
G92 E0 ; reset extrusion distance
G1 X134.435 Y103.185 F7800 ; move to first support material point
G1 E2 F3000 ;  ; unretract
;TYPE:Support material
;WIDTH:0.43
G1 F1200
G1 X154.315 Y103.185 E3.02662 ; support material
G1 X154.315 Y106.025 E3.17328 ; support material
G1 X157.154 Y106.025 E3.31989 ; support material
G1 X157.154 Y108.865 E3.46655 ; support material
G1 X159.994 Y108.865 E3.61321 ; support material
G1 X159.994 Y134.654 E4.94498 ; support material
G1 X148.405 Y134.654 E5.54345 ; support material
G1 X148.405 Y129.245 E5.82278 ; support material
G1 X151.745 Y129.245 E5.99526 ; support material
G1 X151.745 Y125.635 E6.18168 ; support material
G1 X151.396 Y125.635 E6.1997 ; support material
G1 X151.396 Y123.7 E6.29963 ; support material
G1 X151.261 Y123.565 E6.30949 ; support material
G1 X151.745 Y123.565 E6.33448 ; support material
G1 X151.745 Y119.955 E6.5209 ; support material
G1 X148.135 Y119.955 E6.70732 ; support material
G1 X148.135 Y123.565 E6.89374 ; support material
G1 X148.652 Y123.565 E6.92044 ; support material
G1 X148.516 Y123.7 E6.93034 ; support material
G1 X148.516 Y125.635 E7.03027 ; support material
G1 X148.135 Y125.635 E7.04995 ; support material
G1 X148.135 Y128.975 E7.22243 ; support material
G1 X142.955 Y128.975 E7.48993 ; support material
G1 X142.955 Y134.654 E7.7832 ; support material
G1 X134.205 Y134.654 E8.23506 ; support material
G1 X134.205 Y126.135 E8.67499 ; support material
G1 X131.365 Y126.135 E8.82165 ; support material
G1 X131.365 Y114.775 E9.40829 ; support material
G1 X128.865 Y114.775 E9.53739 ; support material
G1 X128.865 Y112.205 E9.67011 ; support material
G1 X131.865 Y112.205 E9.82503 ; support material
G1 X131.865 Y109.365 E9.97169 ; support material
G1 X134.705 Y109.365 E10.11835 ; support material
G1 X134.705 Y105.755 E10.30477 ; support material
G1 X122.575 Y105.755 E10.93118 ; support material
G1 X122.575 Y108.755 E11.0861 ; support material
G1 X120.006 Y108.755 E11.21877 ; support material
G1 X120.006 Y100.346 E11.65302 ; support material
G1 X134.435 Y100.346 E12.39815 ; support material
G1 X134.435 Y103.132 E12.54202 ; support material
G1 X140.115 Y114.775 F7800 ; move to first support material point
G1 F1200
G1 X142.725 Y114.775 E12.6768 ; support material
G1 X142.725 Y117.385 E12.81158 ; support material
G1 X140.115 Y117.385 E12.94636 ; support material
G1 X140.115 Y114.828 E13.07841 ; support material
G1 E11.07841 F3000 ; retract
G92 E0 ; reset extrusion distance
G1 X159.322 Y134.495 F7800 ; move to first support material point
G1 E2 F3000 ;  ; unretract
G1 F1200
G1 X159.322 Y109.185 E3.30703 ; support material
G1 X158.927 Y109.185 E3.32743 ; support material
G1 X158.927 Y134.335 E4.6262 ; support material
G1 X158.533 Y134.335 E4.64655 ; support material
G1 X158.533 Y109.185 E5.94532 ; support material
G1 X158.139 Y109.185 E5.96567 ; support material
G1 X158.139 Y134.335 E7.26444 ; support material
G1 X157.744 Y134.335 E7.28484 ; support material
G1 X157.744 Y109.185 E8.58361 ; support material
G1 X157.35 Y109.185 E8.60396 ; support material
G1 X157.35 Y134.335 E9.90273 ; support material
G1 X156.956 Y134.335 E9.92308 ; support material
G1 X156.956 Y109.185 E11.22185 ; support material
G1 X156.835 Y109.185 E11.2281 ; support material
G1 X156.835 Y106.345 E11.37476 ; support material
G1 X156.561 Y106.345 E11.38891 ; support material
G1 X156.561 Y134.335 E12.83434 ; support material
G1 X156.167 Y134.335 E12.85469 ; support material
G1 X156.167 Y106.345 E14.30012 ; support material
G1 X155.773 Y106.345 E14.32047 ; support material
G1 X155.773 Y134.335 E15.7659 ; support material
G1 X155.379 Y134.335 E15.78625 ; support material
G1 X155.379 Y106.345 E17.23168 ; support material
G1 X154.984 Y106.345 E17.25208 ; support material
G1 X154.984 Y134.335 E18.69751 ; support material
G1 X154.59 Y134.335 E18.71786 ; support material
G1 X154.59 Y106.345 E20.16329 ; support material
G1 X154.196 Y106.345 E20.18364 ; support material
G1 X154.196 Y134.335 E21.62907 ; support material
G1 X153.801 Y134.335 E21.64947 ; support material
G1 X153.801 Y103.505 E23.24156 ; support material
G1 X153.407 Y103.505 E23.26191 ; support material
G1 X153.407 Y134.335 E24.854 ; support material
G1 X153.013 Y134.335 E24.87435 ; support material
G1 X153.013 Y103.505 E26.46644 ; support material
G1 X152.618 Y103.505 E26.48684 ; support material
G1 X152.618 Y134.335 E28.07893 ; support material
G1 X152.224 Y134.335 E28.09928 ; support material
G1 X152.224 Y103.505 E29.69137 ; support material
G1 X151.83 Y103.505 E29.71172 ; support material
G1 X151.83 Y119.635 E30.54469 ; support material
G1 X151.435 Y119.635 E30.56509 ; support material
G1 X151.435 Y103.505 E31.39806 ; support material
G1 X151.041 Y103.505 E31.41841 ; support material
G1 X151.041 Y119.635 E32.25138 ; support material
G1 X150.647 Y119.635 E32.27173 ; support material
G1 X150.647 Y103.505 E33.1047 ; support material
G1 X150.252 Y103.505 E33.1251 ; support material
G1 X150.252 Y119.635 E33.95807 ; support material
G1 X149.858 Y119.635 E33.97842 ; support material
G1 X149.858 Y103.505 E34.81139 ; support material
G1 X149.464 Y103.505 E34.83174 ; support material
G1 X149.464 Y119.635 E35.66471 ; support material
G1 X149.069 Y119.635 E35.68511 ; support material
G1 X149.069 Y103.505 E36.51808 ; support material
G1 X148.675 Y103.505 E36.53843 ; support material
G1 X148.675 Y119.635 E37.3714 ; support material
G1 X148.281 Y119.635 E37.39175 ; support material
G1 X148.281 Y103.505 E38.22472 ; support material
G1 X147.886 Y103.505 E38.24512 ; support material
G1 X147.886 Y125.315 E39.37141 ; support material
G1 X147.815 Y125.315 E39.37508 ; support material
G1 X147.815 Y128.655 E39.54756 ; support material
G1 X147.492 Y128.655 E39.56424 ; support material
G1 X147.492 Y103.505 E40.86301 ; support material
G1 X147.098 Y103.505 E40.88336 ; support material
G1 X147.098 Y128.655 E42.18213 ; support material
G1 X146.703 Y128.655 E42.20253 ; support material
G1 X146.703 Y103.505 E43.5013 ; support material
G1 X146.309 Y103.505 E43.52165 ; support material
G1 X146.309 Y128.655 E44.82042 ; support material
G1 X145.915 Y128.655 E44.84077 ; support material
G1 X145.915 Y103.505 E46.13954 ; support material
G1 X145.52 Y103.505 E46.15994 ; support material
G1 X145.52 Y128.655 E47.45871 ; support material
G1 X145.126 Y128.655 E47.47906 ; support material
G1 X145.126 Y103.505 E48.77783 ; support material
G1 X144.732 Y103.505 E48.79818 ; support material
G1 X144.732 Y128.655 E50.09695 ; support material
G1 X144.338 Y128.655 E50.1173 ; support material
G1 X144.338 Y103.505 E51.41607 ; support material
G1 X143.943 Y103.505 E51.43647 ; support material
G1 X143.943 Y128.655 E52.73524 ; support material
G1 X143.549 Y128.655 E52.75559 ; support material
G1 X143.549 Y103.505 E54.05436 ; support material
G1 X143.155 Y103.505 E54.07471 ; support material
G1 X143.155 Y128.655 E55.37348 ; support material
G1 X142.76 Y128.655 E55.39388 ; support material
G1 X142.76 Y117.704 E55.9594 ; support material
G1 X142.366 Y117.704 E55.97975 ; support material
G1 X142.366 Y134.335 E56.83859 ; support material
G1 X141.972 Y134.335 E56.85894 ; support material
G1 X141.972 Y117.704 E57.71778 ; support material
G1 X141.577 Y117.704 E57.73818 ; support material
G1 X141.577 Y134.335 E58.59702 ; support material
G1 X141.183 Y134.335 E58.61737 ; support material
G1 X141.183 Y117.704 E59.47621 ; support material
G1 X140.789 Y117.704 E59.49656 ; support material
G1 X140.789 Y134.335 E60.3554 ; support material
G1 X140.394 Y134.335 E60.3758 ; support material
G1 X140.394 Y117.704 E61.23464 ; support material
G1 X140 Y117.704 E61.25499 ; support material
G1 X140 Y134.335 E62.11383 ; support material
G1 X139.606 Y134.335 E62.13418 ; support material
G1 X139.606 Y103.505 E63.72627 ; support material
G1 X140 Y103.505 E63.74662 ; support material
G1 X140 Y114.456 E64.31214 ; support material
G1 X140.394 Y114.456 E64.33249 ; support material
G1 X140.394 Y103.505 E64.89801 ; support material
G1 X140.789 Y103.505 E64.91841 ; support material
G1 X140.789 Y114.456 E65.48393 ; support material
G1 X141.183 Y114.456 E65.50428 ; support material
G1 X141.183 Y103.505 E66.0698 ; support material
G1 X141.577 Y103.505 E66.09015 ; support material
G1 X141.577 Y114.456 E66.65567 ; support material
G1 X141.972 Y114.456 E66.67607 ; support material
G1 X141.972 Y103.505 E67.24159 ; support material
G1 X142.366 Y103.505 E67.26194 ; support material
G1 X142.366 Y114.456 E67.82746 ; support material
G1 X142.76 Y114.456 E67.84781 ; support material
G1 X142.76 Y103.345 E68.42159 ; support material
G1 E66.42159 F3000 ; retract
G92 E0 ; reset extrusion distance
G1 X151.83 Y134.495 F7800 ; move to first support material point
G1 E2 F3000 ;  ; unretract
G1 F1200
G1 X151.83 Y129.564 E2.25464 ; support material
G1 X151.435 Y129.564 E2.27504 ; support material
G1 X151.435 Y134.335 E2.52142 ; support material
G1 X151.041 Y134.335 E2.54177 ; support material
G1 X151.041 Y129.564 E2.78815 ; support material
G1 X150.647 Y129.564 E2.8085 ; support material
G1 X150.647 Y134.335 E3.05488 ; support material
G1 X150.252 Y134.335 E3.07528 ; support material
G1 X150.252 Y129.564 E3.32166 ; support material
G1 X149.858 Y129.564 E3.34201 ; support material
G1 X149.858 Y134.335 E3.58839 ; support material
G1 X149.464 Y134.335 E3.60874 ; support material
G1 X149.464 Y129.564 E3.85512 ; support material
G1 X149.069 Y129.564 E3.87552 ; support material
G1 X149.069 Y134.495 E4.13016 ; support material
G1 E2.13016 F3000 ; retract
G92 E0 ; reset extrusion distance
G1 X151.83 Y125.475 F7800 ; move to first support material point
G1 E2 F3000 ;  ; unretract
G1 F1200
G1 X151.83 Y123.725 E2.09037 ; support material
G1 E.09037 F3000 ; retract
G92 E0 ; reset extrusion distance
G1 X139.211 Y134.495 F7800 ; move to first support material point
G1 E2 F3000 ;  ; unretract
G1 F1200
G1 X139.211 Y103.505 E3.60036 ; support material
G1 X138.817 Y103.505 E3.62071 ; support material
G1 X138.817 Y134.335 E5.2128 ; support material
G1 X138.423 Y134.335 E5.23315 ; support material
