;FLAVOR:Marlin
;TIME:1619
;Filament used: 0.97954m
;Layer height: 0.2
;Generated with Cura_SteamEngine 3.6.0
M140 S60
M105
M190 S60
M104 S200
M105
M109 S200
M82 ;absolute extrusion mode
; Ender 3 Custom Start G-code
G28 ; Home all axes
G92 E0 ; Reset Extruder
G1 Z2.0 F3000 ; Move Z Axis up little to prevent scratching of Heat Bed
G1 X0.1 Y20 Z0.3 F5000.0 ; Move to start position
G1 X0.1 Y200.0 Z0.3 F1500.0 E15 ; Draw the first line
G1 X0.4 Y200.0 Z0.3 F5000.0 ; Move to side a little
G1 X0.4 Y20 Z0.3 F1500.0 E30 ; Draw the second line
G92 E0 ; Reset Extruder
G1 Z2.0 F3000 ; Move Z Axis up little to prevent scratching of Heat Bed
; End of custom start GCode
G92 E0
G1 F2400 E-5
;LAYER_COUNT:10
;LAYER:0
M107
M204 S5000
M205 X30 Y30
;MESH:bed_level_test.STL
G0 F3600 X102.8 Y102.8 Z0.2
M204 S500
M205 X20 Y20
;TYPE:WALL-OUTER
G1 F2400 E0
G1 F1800 X102.8 Y132.2 E1.46677
G1 X132.2 Y132.2 E2.93354
G1 X132.2 Y102.8 E4.40032
G1 X102.8 Y102.8 E5.86709
M204 S5000
M205 X30 Y30
G0 F3600 X102.8 Y103
G0 X102.7 Y103
G0 X102.759 Y102.998
G0 X102.772 Y102.772
G0 X132.239 Y102.798
G0 X132.2 Y102.8
G0 X132.3 Y102.8
M204 S500
M205 X20 Y20
G1 F1800 X132.3 Y132.2 E6.11155
G1 X132.3 Y132.3 E6.11455
G1 X132.2 Y132.3 E6.11754
G1 X102.8 Y132.3 E6.362
G1 X102.7 Y132.3 E6.365
G1 X102.7 Y132.2 E6.36799
G1 X102.7 Y102.8 E6.61246
G1 X102.7 Y102.7 E6.61545
G1 X102.8 Y102.7 E6.61845
G1 X132.2 Y102.7 E6.86291
G1 X132.3 Y102.7 E6.8659
G1 X132.3 Y102.8 E6.8689
M204 S5000
M205 X30 Y30
G0 F3600 X132.3 Y103
G1 F2400 E1.8689
G0 F3600 X132.286 Y102.714
G0 X132.286 Y101.835
G0 X132.286 Y93.665
G0 X132.286 Y92.8
G0 X132.312 Y92.8
G0 X142.27 Y92.73
G0 X142.3 Y92.8
M204 S500
M205 X20 Y20
G1 F2400 E6.8689
G1 F1800 X142.3 Y142.2 E9.33348
G1 X142.3 Y142.3 E9.33846
G1 X142.2 Y142.3 E9.34146
G1 X92.8 Y142.3 E11.80604
G1 X92.7 Y142.3 E11.81103
G1 X92.7 Y142.2 E11.81402
G1 X92.7 Y92.8 E14.2786
G1 X92.7 Y92.7 E14.28359
G1 X92.8 Y92.7 E14.28658
G1 X142.2 Y92.7 E16.75116
G1 X142.3 Y92.7 E16.75615
G1 X142.3 Y92.8 E16.75914
M204 S5000
M205 X30 Y30
G0 F3600 X142.3 Y93
G0 X142.2 Y93
G0 X105.648 Y92.799
G0 X92.73 Y92.73
G0 X92.8 Y92.8
M204 S500
M205 X20 Y20
G1 F1800 X92.8 Y142.2 E17.1699
G1 X142.2 Y142.2 E17.58067
G1 X142.2 Y92.8 E17.99143
G1 X92.8 Y92.8 E18.40219
M204 S5000
M205 X30 Y30
G0 F3600 X92.8 Y93
G1 F2400 E13.40219
G0 F3600 X92.714 Y92.714
G0 X92.714 Y91.835
G0 X92.714 Y83.665
G0 X92.714 Y82.8
G0 X82.8 Y82.73
G0 X82.8 Y82.8
M204 S500
M205 X20 Y20
G1 F2400 E18.40219
G1 F1800 X82.8 Y152.2 E21.86457
G1 X152.2 Y152.2 E25.32695
G1 X152.2 Y82.8 E28.78933
G1 X82.8 Y82.8 E32.25171
M204 S5000
M205 X30 Y30
G0 F3600 X82.8 Y83
G0 X82.7 Y83
G0 X82.772 Y82.772
G0 X152.239 Y82.799
G0 X152.2 Y82.8
G0 X152.3 Y82.8
M204 S500
M205 X20 Y20
G1 F1800 X152.3 Y152.2 E32.82878
G1 X152.3 Y152.3 E32.83177
G1 X152.2 Y152.3 E32.83477
G1 X82.8 Y152.3 E33.41183
G1 X82.7 Y152.3 E33.41483
G1 X82.7 Y152.2 E33.41782
G1 X82.7 Y82.8 E33.99488
G1 X82.7 Y82.7 E33.99788
G1 X82.8 Y82.7 E34.00088
G1 X152.2 Y82.7 E34.57794
G1 X152.3 Y82.7 E34.58093
G1 X152.3 Y82.8 E34.58393
M204 S5000
M205 X30 Y30
G0 F3600 X152.3 Y83
G1 F2400 E29.58393
G0 F3600 X152.286 Y82.714
G0 X152.286 Y81.835
G0 X152.286 Y73.665
G0 X152.286 Y72.8
G0 X162.27 Y72.73
G0 X162.3 Y72.8
M204 S500
M205 X20 Y20
G1 F2400 E34.58393
G1 F1800 X162.3 Y162.2 E39.04411
G1 X162.3 Y162.3 E39.0491
G1 X162.2 Y162.3 E39.0521
G1 X72.8 Y162.3 E43.51228
G1 X72.7 Y162.3 E43.51727
G1 X72.7 Y162.2 E43.52027
G1 X72.7 Y72.8 E47.98045
G1 X72.7 Y72.7 E47.98544
G1 X72.8 Y72.7 E47.98844
G1 X162.2 Y72.7 E52.44862
G1 X162.3 Y72.7 E52.45361
G1 X162.3 Y72.8 E52.4566
M204 S5000
M205 X30 Y30
G0 F3600 X162.3 Y73
G0 X162.2 Y73
G0 X72.73 Y72.73
G0 X72.8 Y72.8
M204 S500
M205 X20 Y20
G1 F1800 X72.8 Y162.2 E53.19997
G1 X162.2 Y162.2 E53.94333
G1 X162.2 Y72.8 E54.6867
G1 X72.8 Y72.8 E55.43006
M204 S5000
M205 X30 Y30
G0 F3600 X72.8 Y73
G1 F2400 E50.43006
G0 F3600 X72.714 Y72.714
G0 X72.714 Y71.835
G0 X72.714 Y63.665
G0 X72.714 Y62.8
G0 X72.666 Y62.799
G0 X62.8 Y62.73
G0 X62.8 Y62.8
M204 S500
M205 X20 Y20
G1 F2400 E55.43006
G1 F1800 X62.8 Y172.2 E60.88805
G1 X172.2 Y172.2 E66.34604
G1 X172.2 Y62.8 E71.80403
G1 X62.8 Y62.8 E77.26201
M204 S5000
M205 X30 Y30
G0 F3600 X62.8 Y63
G0 X62.7 Y63
G0 X62.766 Y62.9
G0 X62.772 Y62.772
G0 X172.239 Y62.799
G0 X172.2 Y62.8
G0 X172.3 Y62.8
M204 S500
M205 X20 Y20
G1 F1800 X172.3 Y172.2 E78.17168
G1 X172.3 Y172.3 E78.17467
G1 X172.2 Y172.3 E78.17767
G1 X62.8 Y172.3 E79.08733
G1 X62.7 Y172.3 E79.09033
G1 X62.7 Y172.2 E79.09332
G1 X62.7 Y62.8 E80.00299
G1 X62.7 Y62.7 E80.00599
G1 X62.8 Y62.7 E80.00898
G1 X172.2 Y62.7 E80.91865
G1 X172.3 Y62.7 E80.92164
G1 X172.3 Y62.8 E80.92464
M204 S5000
M205 X30 Y30
G0 F3600 X172.3 Y63
G1 F2400 E75.92464
G0 F3600 X172.286 Y62.714
G0 X172.286 Y61.835
G0 X172.286 Y53.665
G0 X172.286 Y52.8
G0 X182.27 Y52.73
G0 X182.3 Y52.8
M204 S500
M205 X20 Y20
G1 F2400 E80.92464
G1 F1800 X182.3 Y182.2 E87.38043
G1 X182.3 Y182.3 E87.38542
G1 X182.2 Y182.3 E87.38841
G1 X52.8 Y182.3 E93.84421
G1 X52.7 Y182.3 E93.84919
G1 X52.7 Y182.2 E93.85219
G1 X52.7 Y52.8 E100.30798
G1 X52.7 Y52.7 E100.31297
G1 X52.8 Y52.7 E100.31597
G1 X182.2 Y52.7 E106.77176
G1 X182.3 Y52.7 E106.77675
G1 X182.3 Y52.8 E106.77974
M204 S5000
M205 X30 Y30
G0 F3600 X182.3 Y53
G0 X182.2 Y53
G0 X52.73 Y52.73
G0 X52.8 Y52.8
M204 S500
M205 X20 Y20
G1 F1800 X52.8 Y182.2 E107.85571
G1 X182.2 Y182.2 E108.93167
G1 X182.2 Y52.8 E110.00764
G1 X52.8 Y52.8 E111.0836
M204 S5000
M205 X30 Y30
G0 F3600 X52.8 Y53
G1 F2400 E106.0836
G0 F3600 X52.714 Y52.714
G0 X52.714 Y51.835
G0 X52.714 Y43.665
G0 X52.714 Y42.8
G0 X42.8 Y42.73
G0 X42.8 Y42.8
M204 S500
M205 X20 Y20
G1 F2400 E111.0836
G1 F1800 X42.8 Y192.2 E118.5372
G1 X192.2 Y192.2 E125.9908
G1 X192.2 Y42.8 E133.44439
G1 X42.8 Y42.8 E140.89799
M204 S5000
M205 X30 Y30
G0 F3600 X42.8 Y43
G0 X42.7 Y43
G0 X42.759 Y42.999
G0 X42.772 Y42.772
G0 X192.239 Y42.799
G0 X192.2 Y42.8
G0 X192.3 Y42.8
M204 S500
M205 X20 Y20
G1 F1800 X192.3 Y192.2 E142.14026
G1 X192.3 Y192.3 E142.14325
G1 X192.2 Y192.3 E142.14625
G1 X42.8 Y192.3 E143.38851
G1 X42.7 Y192.3 E143.39151
G1 X42.7 Y192.2 E143.3945
G1 X42.7 Y42.8 E144.63677
G1 X42.7 Y42.7 E144.63977
G1 X42.8 Y42.7 E144.64276
G1 X192.2 Y42.7 E145.88503
G1 X192.3 Y42.7 E145.88802
G1 X192.3 Y42.8 E145.89102
M204 S5000
M205 X30 Y30
G0 F3600 X192.3 Y43
G1 F2400 E140.89102
;MESH:NONMESH
G0 F3600 X192.338 Y42.999
G0 X192.258 Y42.999
G0 X192.16 Y42.999
G0 X102.8 Y42.8
G0 X102.8 Y43.665
G0 X102.798 Y51.869
G0 X102.798 Y51.913
G0 X102.798 Y53.583
G0 X102.798 Y53.663
G0 X102.798 Y61.833
G0 X102.798 Y61.913
G0 X102.798 Y63.583
G0 X102.798 Y63.663
G0 X102.798 Y71.833
G0 X102.798 Y71.913
G0 X102.798 Y73.583
G0 X102.798 Y73.663
G0 X102.798 Y81.833
G0 X102.798 Y81.913
G0 X102.798 Y83.583
G0 X102.798 Y83.663
G0 X102.798 Y91.833
G0 X102.798 Y91.913
G0 X102.798 Y93.583
G0 X102.798 Y93.627
G0 X102.8 Y101.835
G0 X102.8 Y102.72
G0 X102.8 Y102.8
;TIME_ELAPSED:193.496770
;LAYER:1
M140 S60
M106 S255
;MESH:bed_level_test.STL
G0 F5400 X102.8 Y102.8 Z0.4
M204 S500
M205 X20 Y20
;TYPE:WALL-OUTER
G1 F2400 E145.89102
G1 F1800 X102.8 Y132.2 E146.86887
G1 X132.2 Y132.2 E147.84671
G1 X132.2 Y102.8 E148.82456
G1 X102.8 Y102.8 E149.80241
M204 S5000
M205 X30 Y30
G0 F5400 X102.8 Y103
G0 X102.7 Y103
G0 X102.759 Y102.998
G0 X102.772 Y102.772
G0 X132.239 Y102.798
G0 X132.2 Y102.8
G0 X132.3 Y102.8
M204 S500
M205 X20 Y20
G1 F1800 X132.3 Y132.2 E150.04687
G1 X132.3 Y132.3 E150.04904
G1 X132.2 Y132.3 E150.0512
G1 X102.8 Y132.3 E150.29566
G1 X102.7 Y132.3 E150.29783
G1 X102.7 Y132.2 E150.29999
G1 X102.7 Y102.8 E150.54445
G1 X102.7 Y102.7 E150.54662
G1 X102.8 Y102.7 E150.54878
G1 X132.2 Y102.7 E150.79324
G1 X132.3 Y102.7 E150.79541
G1 X132.3 Y102.8 E150.79757
M204 S5000
M205 X30 Y30
G0 F5400 X132.3 Y103
G1 F2400 E145.79757
G0 F5400 X132.286 Y102.714
G0 X132.286 Y101.835
G0 X132.286 Y93.665
G0 X132.286 Y92.8
G0 X132.312 Y92.8
G0 X142.27 Y92.73
G0 X142.3 Y92.8
M204 S500
M205 X20 Y20
G1 F2400 E150.79757
G1 F1800 X142.3 Y142.2 E152.44062
G1 X142.3 Y142.3 E152.44395
G1 X142.2 Y142.3 E152.44611
G1 X92.8 Y142.3 E154.08916
G1 X92.7 Y142.3 E154.09249
G1 X92.7 Y142.2 E154.09465
G1 X92.7 Y92.8 E155.7377
G1 X92.7 Y92.7 E155.74103
G1 X92.8 Y92.7 E155.74319
G1 X142.2 Y92.7 E157.38624
G1 X142.3 Y92.7 E157.38957
G1 X142.3 Y92.8 E157.39173
M204 S5000
M205 X30 Y30
G0 F5400 X142.3 Y93
G0 X142.2 Y93
G0 X105.648 Y92.799
G0 X92.73 Y92.73
G0 X92.8 Y92.8
M204 S500
M205 X20 Y20
G1 F1800 X92.8 Y142.2 E157.8025
G1 X142.2 Y142.2 E158.21326
G1 X142.2 Y92.8 E158.62402
G1 X92.8 Y92.8 E159.03478
M204 S5000
M205 X30 Y30
G0 F5400 X92.8 Y93
G1 F2400 E154.03478
G0 F5400 X92.714 Y92.714
G0 X92.714 Y91.835
G0 X92.714 Y83.665
G0 X92.714 Y82.8
G0 X82.8 Y82.73
G0 X82.8 Y82.8
M204 S500
M205 X20 Y20
G1 F2400 E159.03478
G1 F1800 X82.8 Y152.2 E161.34304
G1 X152.2 Y152.2 E163.65129
G1 X152.2 Y82.8 E165.95954
G1 X82.8 Y82.8 E168.2678
M204 S5000
M205 X30 Y30
G0 F5400 X82.8 Y83
G0 X82.7 Y83
G0 X82.772 Y82.772
G0 X152.239 Y82.799
G0 X152.2 Y82.8
G0 X152.3 Y82.8
M204 S500
M205 X20 Y20
G1 F1800 X152.3 Y152.2 E168.84486
G1 X152.3 Y152.3 E168.84702
G1 X152.2 Y152.3 E168.84919
G1 X82.8 Y152.3 E169.42625
G1 X82.7 Y152.3 E169.42842
G1 X82.7 Y152.2 E169.43058
G1 X82.7 Y82.8 E170.00764
G1 X82.7 Y82.7 E170.00981
G1 X82.8 Y82.7 E170.01197
G1 X152.2 Y82.7 E170.58903
G1 X152.3 Y82.7 E170.5912
G1 X152.3 Y82.8 E170.59336
M204 S5000
M205 X30 Y30
G0 F5400 X152.3 Y83
G1 F2400 E165.59336
G0 F5400 X152.286 Y82.714
G0 X152.286 Y81.835
G0 X152.286 Y73.665
G0 X152.286 Y72.8
G0 X162.27 Y72.73
G0 X162.3 Y72.8
M204 S500
M205 X20 Y20
G1 F2400 E170.59336
G1 F1800 X162.3 Y162.2 E173.56682
G1 X162.3 Y162.3 E173.57014
G1 X162.2 Y162.3 E173.57231
G1 X72.8 Y162.3 E176.54576
G1 X72.7 Y162.3 E176.54909
G1 X72.7 Y162.2 E176.55125
G1 X72.7 Y72.8 E179.52471
G1 X72.7 Y72.7 E179.52804
G1 X72.8 Y72.7 E179.5302
G1 X162.2 Y72.7 E182.50366
G1 X162.3 Y72.7 E182.50698
G1 X162.3 Y72.8 E182.50915
M204 S5000
M205 X30 Y30
G0 F5400 X162.3 Y73
G0 X162.2 Y73
G0 X72.73 Y72.73
G0 X72.8 Y72.8
M204 S500
M205 X20 Y20
G1 F1800 X72.8 Y162.2 E183.25251
G1 X162.2 Y162.2 E183.99587
G1 X162.2 Y72.8 E184.73924
G1 X72.8 Y72.8 E185.4826
M204 S5000
M205 X30 Y30
G0 F5400 X72.8 Y73
G1 F2400 E180.4826
G0 F5400 X72.714 Y72.714
G0 X72.714 Y71.835
G0 X72.714 Y63.665
G0 X72.714 Y62.8
G0 X72.666 Y62.799
G0 X62.8 Y62.73
G0 X62.8 Y62.8
M204 S500
M205 X20 Y20
G1 F2400 E185.4826
G1 F1800 X62.8 Y172.2 E189.12126
G1 X172.2 Y172.2 E192.75992
G1 X172.2 Y62.8 E196.39858
G1 X62.8 Y62.8 E200.03724
M204 S5000
M205 X30 Y30
G0 F5400 X62.8 Y63
G0 X62.7 Y63
G0 X62.766 Y62.9
G0 X62.772 Y62.772
G0 X172.239 Y62.799
G0 X172.2 Y62.8
G0 X172.3 Y62.8
M204 S500
M205 X20 Y20
G1 F1800 X172.3 Y172.2 E200.9469
G1 X172.3 Y172.3 E200.94907
G1 X172.2 Y172.3 E200.95123
G1 X62.8 Y172.3 E201.86089
G1 X62.7 Y172.3 E201.86306
G1 X62.7 Y172.2 E201.86522
G1 X62.7 Y62.8 E202.77489
G1 X62.7 Y62.7 E202.77705
G1 X62.8 Y62.7 E202.77922
G1 X172.2 Y62.7 E203.68888
G1 X172.3 Y62.7 E203.69104
G1 X172.3 Y62.8 E203.69321
M204 S5000
M205 X30 Y30
G0 F5400 X172.3 Y63
G1 F2400 E198.69321
G0 F5400 X172.286 Y62.714
G0 X172.286 Y61.835
G0 X172.286 Y53.665
G0 X172.286 Y52.8
G0 X182.27 Y52.73
G0 X182.3 Y52.8
M204 S500
M205 X20 Y20
G1 F2400 E203.69321
G1 F1800 X182.3 Y182.2 E207.99707
G1 X182.3 Y182.3 E208.0004
G1 X182.2 Y182.3 E208.00256
G1 X52.8 Y182.3 E212.30642
G1 X52.7 Y182.3 E212.30975
G1 X52.7 Y182.2 E212.31191
G1 X52.7 Y52.8 E216.61577
G1 X52.7 Y52.7 E216.6191
G1 X52.8 Y52.7 E216.62126
G1 X182.2 Y52.7 E220.92512
G1 X182.3 Y52.7 E220.92845
G1 X182.3 Y52.8 E220.93061
M204 S5000
M205 X30 Y30
G0 F5400 X182.3 Y53
G0 X182.2 Y53
G0 X52.73 Y52.73
G0 X52.8 Y52.8
M204 S500
M205 X20 Y20
G1 F1800 X52.8 Y182.2 E222.00658
G1 X182.2 Y182.2 E223.08254
G1 X182.2 Y52.8 E224.15851
G1 X52.8 Y52.8 E225.23448
M204 S5000
M205 X30 Y30
G0 F5400 X52.8 Y53
G1 F2400 E220.23448
G0 F5400 X52.714 Y52.714
G0 X52.714 Y51.835
G0 X52.714 Y43.665
G0 X52.714 Y42.8
G0 X42.8 Y42.73
G0 X42.8 Y42.8
M204 S500
M205 X20 Y20
G1 F2400 E225.23448
G1 F1800 X42.8 Y192.2 E230.20354
G1 X192.2 Y192.2 E235.1726
G1 X192.2 Y42.8 E240.14167
G1 X42.8 Y42.8 E245.11073
M204 S5000
M205 X30 Y30
G0 F5400 X42.8 Y43
G0 X42.7 Y43
G0 X42.759 Y42.999
G0 X42.772 Y42.772
G0 X192.239 Y42.799
G0 X192.2 Y42.8
G0 X192.3 Y42.8
M204 S500
M205 X20 Y20
G1 F1800 X192.3 Y192.2 E246.353
G1 X192.3 Y192.3 E246.35516
G1 X192.2 Y192.3 E246.35733
G1 X42.8 Y192.3 E247.59959
G1 X42.7 Y192.3 E247.60176
G1 X42.7 Y192.2 E247.60392
G1 X42.7 Y42.8 E248.84619
G1 X42.7 Y42.7 E248.84835
G1 X42.8 Y42.7 E248.85051
G1 X192.2 Y42.7 E250.09278
G1 X192.3 Y42.7 E250.09494
G1 X192.3 Y42.8 E250.09711
M204 S5000
M205 X30 Y30
G0 F5400 X192.3 Y43
G1 F2400 E245.09711
;MESH:NONMESH
G0 F5400 X192.338 Y42.999
G0 X192.258 Y42.999
G0 X192.16 Y42.999
G0 X102.8 Y42.8
G0 X102.8 Y43.665
G0 X102.798 Y51.869
G0 X102.798 Y51.913
G0 X102.798 Y53.583
G0 X102.798 Y53.663
G0 X102.798 Y61.833
G0 X102.798 Y61.913
G0 X102.798 Y63.583
G0 X102.798 Y63.663
G0 X102.798 Y71.833
G0 X102.798 Y71.913
G0 X102.798 Y73.583
G0 X102.798 Y73.663
G0 X102.798 Y81.833
G0 X102.798 Y81.913
G0 X102.798 Y83.583
G0 X102.798 Y83.663
G0 X102.798 Y91.833
G0 X102.798 Y91.913
G0 X102.798 Y93.583
G0 X102.798 Y93.627
G0 X102.8 Y101.835
G0 X102.8 Y102.72
G0 X102.8 Y102.8
;TIME_ELAPSED:373.910440
;LAYER:2
;MESH:bed_level_test.STL
G0 F7200 X102.8 Y102.8 Z0.6
M204 S500
M205 X20 Y20
;TYPE:WALL-OUTER
G1 F2400 E250.09711
G1 F1800 X102.8 Y132.2 E251.07496
G1 X132.2 Y132.2 E252.0528
G1 X132.2 Y102.8 E253.03065
G1 X102.8 Y102.8 E254.0085
M204 S5000
M205 X30 Y30
G0 F7200 X102.8 Y103
G0 X102.7 Y103
G0 X102.759 Y102.998
G0 X102.772 Y102.772
G0 X132.239 Y102.798
G0 X132.2 Y102.8
G0 X132.3 Y102.8
M204 S500
M205 X20 Y20
G1 F1800 X132.3 Y132.2 E254.25296
G1 X132.3 Y132.3 E254.25513
G1 X132.2 Y132.3 E254.25729
G1 X102.8 Y132.3 E254.50175
G1 X102.7 Y132.3 E254.50392
G1 X102.7 Y132.2 E254.50608
G1 X102.7 Y102.8 E254.75054
G1 X102.7 Y102.7 E254.75271
G1 X102.8 Y102.7 E254.75487
G1 X132.2 Y102.7 E254.99933
G1 X132.3 Y102.7 E255.0015
G1 X132.3 Y102.8 E255.00366
M204 S5000
M205 X30 Y30
G0 F7200 X132.3 Y103
G1 F2400 E250.00366
G0 F7200 X132.286 Y102.714
G0 X132.286 Y101.835
G0 X132.286 Y93.665
G0 X132.286 Y92.8
G0 X132.312 Y92.8
G0 X142.27 Y92.73
G0 X142.3 Y92.8
M204 S500
M205 X20 Y20
G1 F2400 E255.00366
G1 F1800 X142.3 Y142.2 E256.64671
G1 X142.3 Y142.3 E256.65004
G1 X142.2 Y142.3 E256.6522
G1 X92.8 Y142.3 E258.29525
G1 X92.7 Y142.3 E258.29858
G1 X92.7 Y142.2 E258.30074
G1 X92.7 Y92.8 E259.94379
G1 X92.7 Y92.7 E259.94712
G1 X92.8 Y92.7 E259.94928
G1 X142.2 Y92.7 E261.59233
G1 X142.3 Y92.7 E261.59566
G1 X142.3 Y92.8 E261.59782
M204 S5000
M205 X30 Y30
G0 F7200 X142.3 Y93
G0 X142.2 Y93
G0 X105.648 Y92.799
G0 X92.73 Y92.73
G0 X92.8 Y92.8
M204 S500
M205 X20 Y20
G1 F1800 X92.8 Y142.2 E262.00859
G1 X142.2 Y142.2 E262.41935
G1 X142.2 Y92.8 E262.83011
G1 X92.8 Y92.8 E263.24087
M204 S5000
M205 X30 Y30
G0 F7200 X92.8 Y93
G1 F2400 E258.24087
G0 F7200 X92.714 Y92.714
G0 X92.714 Y91.835
G0 X92.714 Y83.665
G0 X92.714 Y82.8
G0 X82.8 Y82.73
G0 X82.8 Y82.8
M204 S500
M205 X20 Y20
G1 F2400 E263.24087
G1 F1800 X82.8 Y152.2 E265.54913
G1 X152.2 Y152.2 E267.85738
G1 X152.2 Y82.8 E270.16563
G1 X82.8 Y82.8 E272.47389
M204 S5000
M205 X30 Y30
G0 F7200 X82.8 Y83
G0 X82.7 Y83
G0 X82.772 Y82.772
G0 X152.239 Y82.799
G0 X152.2 Y82.8
G0 X152.3 Y82.8
M204 S500
M205 X20 Y20
G1 F1800 X152.3 Y152.2 E273.05095
G1 X152.3 Y152.3 E273.05311
G1 X152.2 Y152.3 E273.05528
G1 X82.8 Y152.3 E273.63234
G1 X82.7 Y152.3 E273.63451
G1 X82.7 Y152.2 E273.63667
G1 X82.7 Y82.8 E274.21373
G1 X82.7 Y82.7 E274.2159
G1 X82.8 Y82.7 E274.21806
G1 X152.2 Y82.7 E274.79512
G1 X152.3 Y82.7 E274.79729
G1 X152.3 Y82.8 E274.79945
M204 S5000
M205 X30 Y30
G0 F7200 X152.3 Y83
G1 F2400 E269.79945
G0 F7200 X152.286 Y82.714
G0 X152.286 Y81.835
G0 X152.286 Y73.665
G0 X152.286 Y72.8
G0 X162.27 Y72.73
G0 X162.3 Y72.8
M204 S500
M205 X20 Y20
G1 F2400 E274.79945
G1 F1800 X162.3 Y162.2 E277.77291
G1 X162.3 Y162.3 E277.77623
G1 X162.2 Y162.3 E277.7784
G1 X72.8 Y162.3 E280.75185
G1 X72.7 Y162.3 E280.75518
G1 X72.7 Y162.2 E280.75734
G1 X72.7 Y72.8 E283.7308
